X: 1
T: The Famous Ballymote
R: reel
M: 4/4
L: 1/8
K: Dmix
FDAD FAAB|cABG EFGE|FDAD FAAB|cAGE ED D2:||
FDFA d2 ed|cABG EFGE|FDFA d2 ed|cAGE ED D2:||


Tune 390	Setting 13227

